static/img/mobile/scrollbar-dark.svg

<svg fill="none" height="260" viewBox="0 0 961 260" width="961" xmlns="http://www.w3.org/2000/svg" xmlns:xlink="http://www.w3.org/1999/xlink"><clipPath id="a"><rect height="32" rx="4" width="233" x="485" y="114"/></clipPath><path d="m0 0h961v260h-961z" fill="#252a2e"/><rect fill="#171c1e" height="233" rx="4" width="32" x="343" y="13.5"/><path d="m343 17.5c0-2.2091 1.791-4 4-4h24c2.209 0 4 1.7909 4 4v24c0 2.2091-1.791 4-4 4h-24c-2.209 0-4-1.7909-4-4z" fill="#6a6e79"/><path d="m364.19 31-4.22-4.58c-.49-.53-1.45-.53-1.94 0l-4.22 4.58c-.32.35-.4.83-.22 1.25.2.45.67.75 1.19.75h8.43c.52 0 .99-.29 1.19-.75.19-.42.1-.91-.22-1.25z" fill="#fff"/><rect fill="#a3a6b1" height="111" rx="4" width="8" x="355" y="49.5"/><path d="m343 218.5c0-2.209 1.791-4 4-4h24c2.209 0 4 1.791 4 4v24c0 2.209-1.791 4-4 4h-24c-2.209 0-4-1.791-4-4z" fill="#6a6e79"/><path d="m364.401 227.75c-.106-.226-.274-.417-.485-.55s-.456-.202-.705-.2h-8.43c-.52 0-.99.29-1.19.75-.19.43-.1.91.22 1.25l4.22 4.58c.24.26.6.42.97.42s.73-.15.97-.42l4.22-4.58c.32-.35.4-.83.22-1.25z" fill="#fff"/><g clip-path="url(#a)"><rect fill="#171c1e" height="32" rx="4" width="233" x="485" y="114"/><path d="m489 146c-2.209 0-4-1.791-4-4v-24c0-2.209 1.791-4 4-4h28v32z" fill="#6a6e79"/><path d="m502.501 124.81-4.58 4.22c-.53.49-.53 1.45 0 1.94l4.58 4.22c.35.32.83.4 1.25.22.45-.2.75-.67.75-1.19v-8.43c0-.52-.29-.99-.75-1.19-.42-.19-.91-.1-1.25.22z" fill="#fff"/><rect fill="#a3a6b1" height="8" rx="4" width="103" x="529" y="126"/><path d="m686 146v-32h28c2.209 0 4 1.791 4 4v24c0 2.209-1.791 4-4 4z" fill="#6a6e79"/><path d="m699.25 124.6c-.226.106-.417.274-.55.485s-.202.456-.2.705v8.43c0 .52.29.99.75 1.19.43.19.91.1 1.25-.22l4.58-4.22c.26-.24.42-.6.42-.97s-.15-.73-.42-.97l-4.58-4.22c-.35-.32-.83-.4-1.25-.22z" fill="#fff"/></g></svg>

<svg width="961" height="260" viewBox="0 0 961 260" fill="none" xmlns="http://www.w3.org/2000/svg">
<rect width="961" height="260" fill="#252A2E"/>
<rect x="343" y="13.5" width="32" height="233" rx="4" fill="#171C1E"/>
<path d="M343 17.5C343 15.2909 344.791 13.5 347 13.5H371C373.209 13.5 375 15.2909 375 17.5V41.5C375 43.7091 373.209 45.5 371 45.5H347C344.791 45.5 343 43.7091 343 41.5V17.5Z" fill="#6A6E79"/>
<path d="M364.19 31L359.97 26.42C359.48 25.89 358.52 25.89 358.03 26.42L353.81 31C353.49 31.35 353.41 31.83 353.59 32.25C353.79 32.7 354.26 33 354.78 33H363.21C363.73 33 364.2 32.71 364.4 32.25C364.59 31.83 364.5 31.34 364.18 31H364.19Z" fill="white"/>
<rect x="355" y="49.5" width="8" height="111" rx="4" fill="#A3A6B1"/>
<path d="M343 218.5C343 216.291 344.791 214.5 347 214.5H371C373.209 214.5 375 216.291 375 218.5V242.5C375 244.709 373.209 246.5 371 246.5H347C344.791 246.5 343 244.709 343 242.5V218.5Z" fill="#6A6E79"/>
<path d="M364.401 227.75C364.295 227.524 364.127 227.333 363.916 227.2C363.705 227.067 363.46 226.998 363.211 227H354.781C354.261 227 353.791 227.29 353.591 227.75C353.401 228.18 353.491 228.66 353.811 229L358.031 233.58C358.271 233.84 358.631 234 359.001 234C359.371 234 359.731 233.85 359.971 233.58L364.191 229C364.511 228.65 364.591 228.17 364.411 227.75H364.401Z" fill="white"/>
<g clip-path="url(#clip0_431_73328)">
<rect x="485" y="114" width="233" height="32" rx="4" fill="#171C1E"/>
<path d="M489 146C486.791 146 485 144.209 485 142L485 118C485 115.791 486.791 114 489 114L517 114L517 146L489 146Z" fill="#6A6E79"/>
<path d="M502.501 124.81L497.921 129.03C497.391 129.52 497.391 130.48 497.921 130.97L502.501 135.19C502.851 135.51 503.331 135.59 503.751 135.41C504.201 135.21 504.501 134.74 504.501 134.22L504.501 125.79C504.501 125.27 504.211 124.8 503.751 124.6C503.331 124.41 502.841 124.5 502.501 124.82L502.501 124.81Z" fill="white"/>
<rect x="529" y="126" width="103" height="8" rx="4" fill="#A3A6B1"/>
<path d="M686 146L686 114L714 114C716.209 114 718 115.791 718 118L718 142C718 144.209 716.209 146 714 146L686 146Z" fill="#6A6E79"/>
<path d="M699.25 124.6C699.024 124.706 698.833 124.874 698.7 125.085C698.567 125.296 698.498 125.541 698.5 125.79L698.5 134.22C698.5 134.74 698.79 135.21 699.25 135.41C699.68 135.6 700.16 135.51 700.5 135.19L705.08 130.97C705.34 130.73 705.5 130.37 705.5 130C705.5 129.63 705.35 129.27 705.08 129.03L700.5 124.81C700.15 124.49 699.67 124.41 699.25 124.59L699.25 124.6Z" fill="white"/>
</g>
<defs>
<clipPath id="clip0_431_73328">
<rect x="485" y="114" width="233" height="32" rx="4" fill="white"/>
</clipPath>
</defs>
</svg>
